X:54
T:OLDSIMN3- Auld Sir Simon the King
S:SMM #344
Q:1/4=60
L:1/8
M:9/8
K:F mixolydian
F|G3/2 A/ B B3/2 c/ BB2F|G3/2 A/ B B c d e2 B|\
{A/4}G3/2 F/ E E3/2 F/ E GA B|c c B A3/2 G/ AF2||\
g|f3/2 g/ e d3/2 e/ c B g|f3/2 g/ e3/2 d/ B3/2 d/ e2(B/_A/)|\
G3/2 F/ E E3/2 F/ E G/ A3/2 B|c d c B3/2 A/ G F2|]

